svg/fluentui-system-icons/ic_fluent_text_number_list_ltr_rotate_270_24_filled.svg

<svg width="24" height="24" viewBox="0 0 24 24" fill="none" xmlns="http://www.w3.org/2000/svg">
<path d="M2.75007 17.9994C2.39585 17.9994 2.08992 18.2472 2.0164 18.5938C1.94307 18.9394 2.12094 19.2892 2.44311 19.4337L2.44645 19.4353C2.45075 19.4373 2.45889 19.4411 2.47049 19.4468C2.49373 19.4581 2.53063 19.4767 2.57815 19.5025C2.67364 19.5542 2.80953 19.6337 2.96255 19.7401C3.27544 19.9578 3.62496 20.2641 3.86399 20.6468C4.08344 20.9981 4.54613 21.105 4.89743 20.8855C5.24873 20.666 5.35562 20.2034 5.13616 19.8521C5.05833 19.7275 4.97481 19.61 4.88772 19.4994L7.25007 19.4994C7.66429 19.4994 8.00007 19.1636 8.00007 18.7494C8.00007 18.3352 7.66429 17.9994 7.25007 17.9994L2.75007 17.9994ZM18.0001 4.5V13L18.0068 13.1166C18.0646 13.614 18.4872 14 19.0001 14C19.5524 14 20.0001 13.5523 20.0001 13V4.5L19.9933 4.38338C19.9356 3.88604 19.5129 3.5 19.0001 3.5C18.4478 3.5 18.0001 3.94772 18.0001 4.5ZM11.5001 4.5V13L11.5068 13.1166C11.5646 13.614 11.9872 14 12.5001 14C13.0524 14 13.5001 13.5523 13.5001 13V4.5L13.4933 4.38338C13.4356 3.88604 13.0129 3.5 12.5001 3.5C11.9478 3.5 11.5001 3.94772 11.5001 4.5ZM5.00008 4.5L5.00008 13L5.0068 13.1166C5.06457 13.614 5.48724 14 6.00008 14C6.55236 14 7.00008 13.5523 7.00008 13V4.5L6.99335 4.38338C6.93558 3.88604 6.51291 3.5 6.00008 3.5C5.44779 3.5 5.00008 3.94772 5.00008 4.5ZM10.52 18.8486C10.4668 19.1499 10.5864 19.5251 10.7805 19.7192C11.0733 20.0121 11.0733 20.487 10.7804 20.7799C10.4875 21.0727 10.0127 21.0727 9.71977 20.7798C9.16393 20.2239 8.90848 19.3491 9.04278 18.5879C9.11291 18.1905 9.29717 17.7822 9.64842 17.4723C10.0058 17.1569 10.4727 16.9995 11.0001 16.9995C11.6195 16.9995 12.0801 17.2706 12.4206 17.6054C12.7029 17.8832 12.9311 18.2364 13.1087 18.5112L13.1602 18.5908C13.2871 18.786 13.3971 18.9452 13.5001 19.0727V17.7495C13.5001 17.3353 13.8359 16.9995 14.2501 16.9995C14.6643 16.9995 15.0001 17.3353 15.0001 17.7495V20.2495C15.0001 20.6637 14.6643 20.9995 14.2501 20.9995C12.9365 20.9995 12.2972 20.0157 11.913 19.4245L11.8739 19.3643C11.6678 19.0469 11.5275 18.8311 11.3687 18.6748C11.2326 18.541 11.1307 18.4995 11.0001 18.4995C10.7775 18.4995 10.6819 18.5609 10.6409 18.597C10.5937 18.6387 10.5436 18.7148 10.52 18.8486ZM21.2804 21.0298C21.2804 21.0298 21.3641 20.937 21.2849 21.0252L21.2902 21.0199L21.3028 21.0066C21.3122 20.9966 21.3233 20.9844 21.336 20.97C21.3613 20.941 21.3928 20.903 21.4282 20.8558C21.499 20.7614 21.5861 20.6296 21.6709 20.4599C21.8418 20.1182 22.0001 19.6291 22.0001 18.9995C22.0001 18.3603 21.8187 17.8035 21.4606 17.3982C21.1001 16.9903 20.6032 16.7879 20.1011 16.804C19.6847 16.8173 19.3054 16.9705 19.0001 17.2297C18.6948 16.9705 18.3155 16.8173 17.8991 16.804C17.3969 16.7879 16.9 16.9903 16.5396 17.3982C16.1814 17.8035 16.0001 18.3603 16.0001 18.9995C16.0001 19.6291 16.1584 20.1182 16.3293 20.4599C16.4141 20.6296 16.5012 20.7614 16.572 20.8558C16.6074 20.903 16.6389 20.941 16.6642 20.97C16.6768 20.9844 16.688 20.9966 16.6973 21.0066L16.71 21.0199L16.7152 21.0253L16.7176 21.0276L16.7185 21.0286L16.7197 21.0298C17.0126 21.3227 17.4875 21.3227 17.7804 21.0298C18.0693 20.7409 18.0732 20.2749 17.7921 19.9812C17.7892 19.9778 17.7821 19.9693 17.772 19.9558C17.749 19.9251 17.7111 19.8695 17.6709 19.7891C17.5918 19.6308 17.5001 19.3699 17.5001 18.9995C17.5001 18.6387 17.6 18.4635 17.6637 18.3914C17.7251 18.3218 17.7907 18.3013 17.8511 18.3032C17.9156 18.3053 18.0028 18.3355 18.0819 18.4267C18.1585 18.515 18.2501 18.6899 18.2501 18.9995C18.2501 19.4137 18.5859 19.7495 19.0001 19.7495C19.4143 19.7495 19.7501 19.4137 19.7501 18.9995C19.7501 18.6899 19.8417 18.515 19.9183 18.4267C19.9974 18.3355 20.0845 18.3053 20.1491 18.3032C20.2094 18.3013 20.275 18.3218 20.3365 18.3914C20.4002 18.4635 20.5001 18.6387 20.5001 18.9995C20.5001 19.3699 20.4084 19.6308 20.3293 19.7891C20.2891 19.8695 20.2512 19.9251 20.2282 19.9558C20.218 19.9693 20.2109 19.9778 20.208 19.9812C19.9269 20.2749 19.9308 20.7409 20.2197 21.0298C20.5126 21.3227 20.9875 21.3227 21.2804 21.0298ZM16.7176 21.0276L16.7185 21.0286C16.713 21.0219 16.5516 20.8277 16.7176 21.0276Z" fill="#212121"/>
</svg>

<svg xmlns="http://www.w3.org/2000/svg" width="24" height="24"><path d="M2.75 18a.75.75 0 0 0-.307 1.434l.003.001.024.012a4.115 4.115 0 0 1 .492.293c.313.218.663.524.902.907a.75.75 0 1 0 1.272-.795 3.971 3.971 0 0 0-.248-.353H7.25a.75.75 0 0 0 0-1.5h-4.5ZM18 4.5V13l.007.117A1 1 0 0 0 20 13V4.5l-.007-.117A1 1 0 0 0 18 4.5Zm-6.5 0V13l.007.117A1 1 0 0 0 13.5 13V4.5l-.007-.117A1 1 0 0 0 11.5 4.5ZM5 4.5V13l.007.117A1 1 0 0 0 7 13V4.5l-.007-.117A1 1 0 0 0 5 4.5Zm5.52 14.349c-.053.3.066.676.26.87a.75.75 0 0 1-1.06 1.06c-.556-.555-.812-1.43-.677-2.191.07-.398.254-.806.605-1.116.358-.315.825-.473 1.352-.473.62 0 1.08.272 1.42.606.283.278.511.631.689.906l.051.08c.127.195.237.354.34.482V17.75a.75.75 0 0 1 1.5 0v2.5a.75.75 0 0 1-.75.75c-1.313 0-1.953-.984-2.337-1.576l-.04-.06c-.205-.317-.345-.533-.504-.69-.136-.133-.238-.174-.369-.174-.223 0-.318.06-.36.097a.42.42 0 0 0-.12.252Zm10.76 2.18s.084-.092.005-.004l.005-.005.013-.013a1.579 1.579 0 0 0 .125-.151c.071-.095.158-.226.243-.396.17-.342.33-.83.33-1.46 0-.64-.182-1.197-.54-1.602a1.731 1.731 0 0 0-1.36-.594 1.774 1.774 0 0 0-1.1.426 1.774 1.774 0 0 0-1.102-.426 1.73 1.73 0 0 0-1.36.594C16.182 17.803 16 18.36 16 19c0 .63.158 1.118.33 1.46a2.592 2.592 0 0 0 .334.51 1.6 1.6 0 0 0 .033.037l.013.013.005.005.003.003.002.002a.75.75 0 0 0 1.072-1.049 1.102 1.102 0 0 1-.121-.192 1.75 1.75 0 0 1-.17-.79c0-.36.099-.535.163-.608a.232.232 0 0 1 .187-.088.325.325 0 0 1 .23.124c.078.088.17.263.17.573a.75.75 0 0 0 1.5 0c0-.31.09-.485.167-.573a.325.325 0 0 1 .231-.124.232.232 0 0 1 .188.088c.063.073.163.248.163.609 0 .37-.092.63-.17.79a1.102 1.102 0 0 1-.122.191.75.75 0 0 0 1.072 1.049Zm-4.562-.001Z"/></svg>
